packages/foundations/assets/icons/functional/images/transportation/boat_32_inverted.svg

<svg width="32" height="32" viewBox="0 0 32 32" fill="none" xmlns="http://www.w3.org/2000/svg">
<g clip-path="url(#clip0_2214_6668)">
<path fill-rule="evenodd" clip-rule="evenodd" d="M26.6387 20.9548C26.9328 21.3337 27.2612 21.7068 27.4678 21.8963C27.9535 22.3417 28.5749 22.6183 28.9988 22.6683C29.5016 22.7277 29.8488 23.0533 29.8488 23.5227C29.8488 23.9922 29.4682 24.3727 28.9988 24.3727C27.9782 24.3727 26.9642 23.8463 25.9568 22.7935C24.7927 23.8463 23.64 24.3727 22.4988 24.3727C21.3576 24.3727 20.2506 23.925 19.1778 23.0295C18.0867 23.925 17.0271 24.3727 15.9988 24.3727C14.9705 24.3727 13.8905 23.9163 12.7588 23.0035C11.5931 23.9163 10.5064 24.3727 9.4988 24.3727C8.49116 24.3727 7.37283 23.9167 6.1438 23.0045C5.06016 23.9167 4.01183 24.3727 2.9988 24.3727C2.52936 24.3727 2.1488 23.9922 2.1488 23.5227C2.1488 23.0894 2.49943 22.6727 2.9988 22.6727C3.71937 22.51 4.27438 22.2882 4.66384 22.0072C5.0369 21.738 5.32216 21.4683 5.46908 21.3039C5.78681 20.9483 6.33196 20.9276 6.68327 21.2492C7.03458 21.5708 7.39479 21.818 7.64871 21.9805C8.22183 22.3473 8.924 22.6666 9.4988 22.6683C10.0736 22.6701 10.6389 22.4138 11.2653 21.9916C11.5033 21.8312 11.7972 21.6156 12.1598 21.2716C12.5225 20.9276 13.0149 20.9302 13.3719 21.2769C13.7288 21.6236 14.0162 21.8343 14.2507 21.9942C14.8798 22.4232 15.491 22.6727 15.9988 22.6727C16.5046 22.6727 17.1065 22.4247 17.723 21.9977C17.9529 21.8385 18.234 21.6488 18.5813 21.284C18.9287 20.9193 19.5152 20.9349 19.8427 21.3176C19.9766 21.4741 20.2511 21.7365 20.6277 22.0004C21.2333 22.4249 21.8702 22.6727 22.4988 22.6727C23.1023 22.6727 23.7722 22.3718 24.4375 21.8526C24.6845 21.6599 25.0113 21.4006 25.3454 20.9879C25.6796 20.5752 26.3446 20.5758 26.6387 20.9548ZM20.4052 9.62217C20.8403 10.1003 21.1889 10.5762 21.4469 10.9856L28.8519 9.68553C29.542 9.56443 30.0583 10.2761 29.7691 10.8831L27.2589 14.9094C25.8181 17.2183 24.8479 18.7561 24.3484 19.5227C23.5991 20.6727 22.4988 20.5227 22.4988 20.5227C21.5149 20.5215 20.4315 19.8548 19.2488 18.5227C18.0561 19.8561 16.9728 20.5227 15.9988 20.5227C15.0248 20.5227 13.9415 19.8561 12.7488 18.5227C11.5641 19.8561 10.4808 20.5227 9.4988 20.5227C8.5168 20.5227 7.43347 19.8561 6.2488 18.5227C5.06845 19.8561 3.98512 20.5227 2.9988 20.5227C2.56547 20.5227 2.1488 20.1668 2.1488 19.6724L2.15388 16.5773C2.1488 15.2617 3.10518 14.2307 4.28258 13.996L8.49638 13.2569C9.22306 12.2328 9.47347 10.9395 9.17314 9.71137C9.06391 9.26474 9.32389 8.77646 9.86087 8.67072L15.8611 7.68397C17.5795 7.40176 19.1041 8.1924 20.4052 9.62217ZM8.6636 15.1843C8.25761 15.3008 7.99244 15.7042 8.05933 16.1323C8.12623 16.5605 8.50181 16.8637 8.924 16.8508L25.1347 14.3179C25.5407 14.2014 25.8058 13.798 25.739 13.3699C25.6721 12.9418 25.2965 12.6385 24.8743 12.6514L8.6636 15.1843ZM16.3199 9.33856L10.9718 10.2095C11.0679 11.1591 10.909 12.0844 10.6045 12.8871C16.5999 11.8346 19.5976 11.3083 19.5976 11.3083C18.3584 9.71137 17.2958 9.25472 16.3199 9.33856Z" fill="#1A1C1F"/>
</g>
<defs>
<clipPath id="clip0_2214_6668">
<rect width="32" height="32" fill="white"/>
</clipPath>
</defs>
</svg>

<svg xmlns="http://www.w3.org/2000/svg" width="32" height="32" fill="none"><g clip-path="url(#a)"><path fill="#1A1C1F" fill-rule="evenodd" d="M26.639 20.955c.294.379.622.752.829.941.485.446 1.107.722 1.53.772.504.06.85.385.85.855s-.38.85-.85.85q-1.53 0-3.041-1.58-1.746 1.58-3.458 1.58t-3.321-1.344q-1.636 1.344-3.18 1.344-1.54 0-3.24-1.37-1.748 1.37-3.26 1.37-1.51 0-3.354-1.369-1.626 1.37-3.145 1.369a.85.85 0 1 1 0-1.7q1.08-.245 1.665-.666c.373-.269.658-.539.805-.703a.853.853 0 0 1 1.214-.055c.352.322.712.569.966.732.573.366 1.275.686 1.85.687s1.14-.254 1.766-.676c.238-.16.532-.376.895-.72s.855-.342 1.212.005.644.557.879.717c.629.43 1.24.679 1.748.679.506 0 1.108-.248 1.724-.675.23-.16.511-.35.858-.714a.85.85 0 0 1 1.262.034c.134.156.408.418.785.682.605.425 1.242.673 1.87.673.604 0 1.274-.301 1.94-.82.247-.193.573-.452.907-.865s1-.412 1.294-.033M20.405 9.622c.435.478.784.954 1.042 1.364l7.405-1.3a.85.85 0 0 1 .917 1.197l-2.51 4.026a347 347 0 0 1-2.91 4.614c-.75 1.15-1.85 1-1.85 1q-1.476-.002-3.25-2-1.79 2-3.25 2-1.461 0-3.25-2-1.777 2-3.25 2t-3.25-2q-1.77 2-3.25 2a.857.857 0 0 1-.85-.85l.005-3.096c-.005-1.315.951-2.346 2.129-2.581l4.213-.74a4.34 4.34 0 0 0 .677-3.545.85.85 0 0 1 .688-1.04l6-.987c1.718-.282 3.243.508 4.544 1.938M8.664 15.184a.85.85 0 0 0 .26 1.667l16.21-2.533a.85.85 0 0 0-.26-1.667zM16.32 9.34l-5.348.87a5.9 5.9 0 0 1-.367 2.678l8.993-1.579c-1.24-1.597-2.302-2.053-3.278-1.97" clip-rule="evenodd"/></g><defs><clipPath id="a"><path fill="#fff" d="M0 0h32v32H0z"/></clipPath></defs></svg>
